public/assets/images/ruce_4c42106429.svg

<?xml version="1.0" encoding="UTF-8" standalone="no"?>
<svg
   width="85"
   height="85"
   viewBox="0 0 85 85"
   fill="none"
   version="1.1"
   id="svg8"
   sodipodi:docname="ruce_4c42106429.svg"
   inkscape:export-filename="hands.png"
   inkscape:export-xdpi="300"
   inkscape:export-ydpi="300"
   inkscape:version="1.3 (0e150ed6c4, 2023-07-21)"
   xmlns:inkscape="http://www.inkscape.org/namespaces/inkscape"
   xmlns:sodipodi="http://sodipodi.sourceforge.net/DTD/sodipodi-0.dtd"
   xmlns="http://www.w3.org/2000/svg"
   xmlns:svg="http://www.w3.org/2000/svg">
  <sodipodi:namedview
     id="namedview8"
     pagecolor="#ffffff"
     bordercolor="#000000"
     borderopacity="0.25"
     inkscape:showpageshadow="2"
     inkscape:pageopacity="0.0"
     inkscape:pagecheckerboard="0"
     inkscape:deskcolor="#d1d1d1"
     inkscape:zoom="4.4176471"
     inkscape:cx="38.255659"
     inkscape:cy="61.910786"
     inkscape:window-width="1920"
     inkscape:window-height="986"
     inkscape:window-x="-11"
     inkscape:window-y="-11"
     inkscape:window-maximized="1"
     inkscape:current-layer="svg8" />
  <circle
     cx="-61.610146"
     cy="22.925037"
     r="23.4126"
     transform="rotate(-135)"
     fill="#f2f5cc"
     id="circle1"
     clip-path="url(#clipPath17)"
     style="fill:#74a8ed;fill-opacity:1" />
  <path
     d="m 42.3291,10.7988 c -9.1432,-9.14319 -23.9672,-9.14319 -33.11039,0 -9.1431741,9.1432 -9.1431741,23.9672 0,33.1103 0.42685,0.4269 0.86609,0.8338 1.31649,1.2208 0.1224,0.1493 0.2533,0.2939 0.3926,0.4333 l 33.3863,33.3863 c 2.2858,2.2857 5.9918,2.2857 8.2776,0 2.2797,-2.2797 2.2858,-5.972 0.0183,-8.2593 2.2872,2.2676 5.9795,2.2615 8.2592,-0.0182 2.2796,-2.2795 2.2858,-5.9715 0.0188,-8.2588 2.2872,2.2671 5.9793,2.2609 8.2588,-0.0187 2.2041,-2.2041 2.2829,-5.7287 0.2363,-8.0272 2.3027,2.0434 5.8283,1.9623 8.034,-0.2434 2.2898,-2.2898 2.2898,-6.0024 0,-8.2923 L 44.0455,12.4601 C 43.8103,12.2249 43.5601,12.0138 43.298,11.827 42.9873,11.477 42.6643,11.1341 42.3291,10.7988 Z"
     fill="#ffffff"
     stroke="#98a300"
     stroke-width="1.5"
     id="path1"
     clip-path="url(#clipPath16)"
     style="stroke:#74a8ed;stroke-opacity:1" />
  <rect
     x="-50.013943"
     y="-4.2481575"
     width="11.7063"
     height="30.916201"
     rx="5.8531399"
     transform="rotate(-135)"
     fill="#f2f5cc"
     id="rect1"
     clip-path="url(#clipPath15)"
     style="fill:#74a8ed;fill-opacity:1" />
  <path
     d="M 61.043,62.5684 42.6582,44.1836"
     stroke="#98a300"
     stroke-width="1.5"
     id="path2"
     clip-path="url(#clipPath14)"
     style="stroke:#74a8ed;stroke-opacity:1" />
  <path
     d="M 52.6605,70.7405 49.832,67.9121"
     stroke="#98a300"
     stroke-width="1.5"
     id="path3"
     clip-path="url(#clipPath13)" />
  <path
     d="M 69.9994,54.9995 50.9355,35.9062"
     stroke="#98a300"
     stroke-width="1.5"
     id="path4"
     clip-path="url(#clipPath12)"
     style="stroke:#74a8ed;stroke-opacity:1" />
  <rect
     x="-85.022659"
     y="-32.484062"
     width="11.7063"
     height="24.5832"
     rx="5.8531399"
     transform="rotate(-135)"
     fill="#f2f5cc"
     id="rect4"
     clip-path="url(#clipPath11)"
     style="fill:#74a8ed;fill-opacity:1" />
  <rect
     x="-61.610851"
     y="-32.484131"
     width="11.7063"
     height="24.5832"
     rx="5.8531399"
     transform="rotate(-135)"
     fill="#f2f5cc"
     id="rect5"
     clip-path="url(#clipPath10)"
     style="fill:#74a8ed;fill-opacity:1" />
  <rect
     x="-73.316719"
     y="-32.484131"
     width="11.7063"
     height="24.5832"
     rx="5.8531399"
     transform="rotate(-135)"
     fill="#f2f5cc"
     id="rect6"
     clip-path="url(#clipPath9)"
     style="fill:#74a8ed;fill-opacity:1" />
  <rect
     x="-49.904911"
     y="-32.484058"
     width="11.7063"
     height="24.5832"
     rx="5.8531399"
     transform="rotate(-135)"
     fill="#f2f5cc"
     id="rect7"
     clip-path="url(#clipPath8)"
     style="fill:#74a8ed;fill-opacity:1" />
  <defs
     id="defs8">
    <clipPath
       clipPathUnits="userSpaceOnUse"
       id="clipPath8">
      <g
         id="g9"
         transform="rotate(135)">
        <rect
           width="85"
           height="85"
           fill="#ffffff"
           id="rect9"
           x="0"
           y="0" />
      </g>
    </clipPath>
    <clipPath
       clipPathUnits="userSpaceOnUse"
       id="clipPath9">
      <g
         id="g10"
         transform="rotate(135)">
        <rect
           width="85"
           height="85"
           fill="#ffffff"
           id="rect10"
           x="0"
           y="0" />
      </g>
    </clipPath>
    <clipPath
       clipPathUnits="userSpaceOnUse"
       id="clipPath10">
      <g
         id="g11"
         transform="rotate(135)">
        <rect
           width="85"
           height="85"
           fill="#ffffff"
           id="rect11"
           x="0"
           y="0" />
      </g>
    </clipPath>
    <clipPath
       clipPathUnits="userSpaceOnUse"
       id="clipPath11">
      <g
         id="g12"
         transform="rotate(135)">
        <rect
           width="85"
           height="85"
           fill="#ffffff"
           id="rect12"
           x="0"
           y="0" />
      </g>
    </clipPath>
    <clipPath
       clipPathUnits="userSpaceOnUse"
       id="clipPath12">
      <g
         id="g13">
        <rect
           width="85"
           height="85"
           fill="#ffffff"
           id="rect13"
           x="0"
           y="0" />
      </g>
    </clipPath>
    <clipPath
       clipPathUnits="userSpaceOnUse"
       id="clipPath13">
      <g
         id="g14">
        <rect
           width="85"
           height="85"
           fill="#ffffff"
           id="rect14"
           x="0"
           y="0" />
      </g>
    </clipPath>
    <clipPath
       clipPathUnits="userSpaceOnUse"
       id="clipPath14">
      <g
         id="g15">
        <rect
           width="85"
           height="85"
           fill="#ffffff"
           id="rect15"
           x="0"
           y="0" />
      </g>
    </clipPath>
    <clipPath
       clipPathUnits="userSpaceOnUse"
       id="clipPath15">
      <g
         id="g16"
         transform="rotate(135)">
        <rect
           width="85"
           height="85"
           fill="#ffffff"
           id="rect16"
           x="0"
           y="0" />
      </g>
    </clipPath>
    <clipPath
       clipPathUnits="userSpaceOnUse"
       id="clipPath16">
      <g
         id="g17">
        <rect
           width="85"
           height="85"
           fill="#ffffff"
           id="rect17"
           x="0"
           y="0" />
      </g>
    </clipPath>
    <clipPath
       clipPathUnits="userSpaceOnUse"
       id="clipPath17">
      <g
         id="g18"
         transform="rotate(135)">
        <rect
           width="85"
           height="85"
           fill="#ffffff"
           id="rect18"
           x="0"
           y="0" />
      </g>
    </clipPath>
  </defs>
</svg>

<svg width="85" height="85" viewBox="0 0 85 85" fill="none" xmlns="http://www.w3.org/2000/svg">
<g clip-path="url(#clip0_613_8607)">
<circle cx="59.7754" cy="27.3545" r="23.4126" transform="rotate(-135 59.7754 27.3545)" fill="#F2F5CC"/>
<path d="M42.3291 10.7988C33.1859 1.65561 18.3619 1.65561 9.21871 10.7988C0.0755359 19.942 0.0755359 34.766 9.21871 43.9091C9.64556 44.336 10.0848 44.7429 10.5352 45.1299C10.6576 45.2792 10.7885 45.4238 10.9278 45.5632L44.3141 78.9495C46.5999 81.2352 50.3059 81.2352 52.5917 78.9495C54.8714 76.6698 54.8775 72.9775 52.61 70.6902C54.8972 72.9578 58.5895 72.9517 60.8692 70.672C63.1488 68.3925 63.155 64.7005 60.888 62.4132C63.1752 64.6803 66.8673 64.6741 69.1468 62.3945C71.3509 60.1904 71.4297 56.6658 69.3831 54.3673C71.6858 56.4107 75.2114 56.3296 77.4171 54.1239C79.7069 51.8341 79.7069 48.1215 77.4171 45.8316L44.0455 12.4601C43.8103 12.2249 43.5601 12.0138 43.298 11.827C42.9873 11.477 42.6643 11.1341 42.3291 10.7988Z" fill="white" stroke="#98A300" stroke-width="1.5"/>
<rect x="32.3613" y="38.3691" width="11.7063" height="30.9162" rx="5.85314" transform="rotate(-135 32.3613 38.3691)" fill="#F2F5CC"/>
<path d="M61.043 62.5684L42.6582 44.1836" stroke="#98A300" stroke-width="1.5"/>
<path d="M52.6605 70.7405L49.832 67.9121" stroke="#98A300" stroke-width="1.5"/>
<path d="M69.9994 54.9995L50.9355 35.9062" stroke="#98A300" stroke-width="1.5"/>
<rect x="37.1504" y="83.0898" width="11.7063" height="24.5832" rx="5.85314" transform="rotate(-135 37.1504 83.0898)" fill="#F2F5CC"/>
<rect x="20.5957" y="66.5352" width="11.7063" height="24.5832" rx="5.85314" transform="rotate(-135 20.5957 66.5352)" fill="#F2F5CC"/>
<rect x="28.873" y="74.8125" width="11.7063" height="24.5832" rx="5.85314" transform="rotate(-135 28.873 74.8125)" fill="#F2F5CC"/>
<rect x="12.3184" y="58.2578" width="11.7063" height="24.5832" rx="5.85314" transform="rotate(-135 12.3184 58.2578)" fill="#F2F5CC"/>
</g>
<defs>
<clipPath id="clip0_613_8607">
<rect width="85" height="85" fill="white"/>
</clipPath>
</defs>
</svg>
